X: 1
T:WHAT CHILD IS THIS
M:6/8
L:1/8
Q:80
C:ENGLISH/GREENSLEVES
S:
K:HP
B|
{Gdc}d2e{g}f3/2g/2f|
{g}e2c{g}A3/2B/2c|
{Gdc}d2B{g}B3/2A/2B|  !
{gcd}c2A{GAG}AB|
{Gdc}d2e{g}f3/2gf|
{g}d2c{g}A3/2B/2c|  !
{Gdc}d3/2c/2B{g}A3/2G/2A|
{gBd}B3{g}B3|:
a3{ag}a3/2g3/4f|  !
{gef}e2c{g}A3/2B/2c|
{Gdc}d2B{g}B3/2A/2B|
{g}c2A2{GAG}A3:|  !
{Gdc}d3/2c/2B{g}A3/2G/2A|
{gBd}B3{g}B3|]
